X: 42144
T: Watchmaker, The
R: reel
M: 4/4
K: Aminor
cAAc BGGB|cA A2 (3Bcd ed|cAAc BGGB|cABG EAAB:|
c3 e gece|G2 BG dGBG|c3 e gedg|eaag eaaf|
g2 eg f2 df|ec c2 dB B2|ABcd e=fed|cABG DAAB|

